X:2926
T:Tanz r\"uber, tanz n\"uber
C:anon.
O:Germany
A:Bayern
Z:Transcribed by Frank Nordberg - http://www.musicaviva.com
F:http://abc.musicaviva.com/tunes/germany/tanz-ruber-tanz-nuber.abc
M:3/8
L:1/8
K:A
A|"E"GBB|"A"Acc|"E7"B>cd|"A"c2A|
w:Tanz r\"u-ber, tanz n\"u-ber, tanz nauf und tanz no, ach,
"E"GBB|"A"Ace|"E7"dBG|"A"HA2e[|"E7"edd|"A"c-ce|
w:leih mir dein Sch\"at-zel das mein ist nit do. I leih es dir nit,* i
"E7"edd|"A"c2A|"E"GBB|"A"Ace|"E7"dBG|"A"A2|]
w:geb es dir nit, ein' sol-chen Schma-rot-zer, den brauch ich ja nit.
W:
W:Tanz r\"uber, tanz n\"uber, tanz nauf und tanz no,
W:ach, leih mir dein Sch\"atzel das mein ist nit do.
W:I leih es dir nit, i geb es dir nit,
W:ein' solchen Schmarotzer, den brauch ich ja nit.
W:
W:Und wenn du so stolz auf dein Sch\"atzel willst sein,
W:so nimm ein Papierle und wikkels fest ein.
W:und nimmen ein rots B\"andle und schn\"ur es fest zu,
W:dann kommt dir nit solch ein Schmarotzer dazu.
W:
W:
W:  From Musica Viva - http://www.musicaviva.com
W:  the Internet center for free sheet music downloads.


